X:1
%
T:Hornpipe [25]
M:C|
L:1/8
R:Hornpipe
S:John Rook music manuscript collection (Waverton, Cumbria, 1840, p. 219)
Z:AK/Fiddler’s Companion
K:D
A2|BABc fgab|gfed cdef|gefd B2 ba|gfed c2A2|
BABc fgab|gfed cdef|gefe ddfe|d2d2d2:|
|:ed|ce a2 fa d’2|bged cdef|gefd B2 ba|gfed c2 ed|
ce a2 fa d’2|bged cdef|gegd Bdce|d2d2d2:|]

